resources/images/plate_move_front.svg

<?xml version="1.0" encoding="UTF-8"?><svg id="a" xmlns="http://www.w3.org/2000/svg" width="43" height="43" viewBox="0 0 43 43"><rect x="1.5" y="1.5" width="40" height="40" rx="3.5" ry="3.5" style="fill:#e9e9e9;"/><path d="M38,2c1.65,0,3,1.35,3,3v33c0,1.65-1.35,3-3,3H5c-1.65,0-3-1.35-3-3V5c0-1.65,1.35-3,3-3h33M38,1H5C2.79,1,1,2.79,1,5v33c0,2.21,1.79,4,4,4h33c2.21,0,4-1.79,4-4V5c0-2.21-1.79-4-4-4h0Z" style="fill:#545454;"/><line x1="10.5" y1="6.5" x2="32.5" y2="6.5" style="fill:none; stroke:#545454; stroke-linecap:square; stroke-linejoin:round;"/><polyline points="10.52 19.47 21.53 8.5 32.49 19.51" style="fill:none; stroke:#545454; stroke-linecap:round; stroke-linejoin:round;"/><line x1="21.5" y1="8.5" x2="21.5" y2="36.5" style="fill:none; stroke:#545454; stroke-linecap:round; stroke-linejoin:round;"/></svg>

<svg width="43" height="43" viewBox="0 0 43 43" fill="none" xmlns="http://www.w3.org/2000/svg">
<path d="M38 1.5H5C3.067 1.5 1.5 3.067 1.5 5V38C1.5 39.933 3.067 41.5 5 41.5H38C39.933 41.5 41.5 39.933 41.5 38V5C41.5 3.067 39.933 1.5 38 1.5Z" fill="#E9E9E9"/>
<path d="M38 2C39.65 2 41 3.35 41 5V38C41 39.65 39.65 41 38 41H5C3.35 41 2 39.65 2 38V5C2 3.35 3.35 2 5 2H38ZM38 1H5C2.79 1 1 2.79 1 5V38C1 40.21 2.79 42 5 42H38C40.21 42 42 40.21 42 38V5C42 2.79 40.21 1 38 1Z" fill="#545454"/>
<path d="M10.5 6.5H32.5" stroke="#545454" stroke-linecap="square" stroke-linejoin="round"/>
<path d="M10.52 19.47L21.53 8.5L32.49 19.51" stroke="#545454" stroke-linecap="round" stroke-linejoin="round"/>
<path d="M21.5 8.5V36.5" stroke="#545454" stroke-linecap="round" stroke-linejoin="round"/>
</svg>
